svgs/smarty.svg

<svg width="192" height="192" viewBox="0 0 192 192" fill="none" xmlns="http://www.w3.org/2000/svg">
<path d="M154 124.199C154 97.671 135.584 87.4459 107.929 80.2684C83.9672 74.1559 79.1263 71.3853 79.1263 63.8009V63.4113C79.1263 57.2121 85.4273 53.1948 95.1787 53.1948C108.25 53.1948 119.827 56.8139 130.578 64.2424L132.229 65.3939L150.497 39.013L149.037 37.8442C135.531 27.039 118.549 22 95.5872 22C65.4552 22 44.3966 40.1818 44.3966 66.2078V66.6061C44.3966 96.6667 66.1765 104.649 92.4758 111.342C117.471 117.723 119.279 121.593 119.279 127.203V127.602C119.279 134.615 112.448 138.805 101.002 138.805C85.7402 138.805 72.8165 134.017 60.3274 123.74L58.7891 122.476L38 147.29L39.4427 148.58C55.1997 162.589 76.2843 170 100.402 170C132.968 170 154 152.165 154 124.597V124.199Z" stroke="black" stroke-width="12" stroke-linejoin="round"/>
</svg>

<svg xmlns="http://www.w3.org/2000/svg" width="192" height="192" fill="none" xmlns:v="https://vecta.io/nano"><path d="M154 124.199c0-26.528-18.416-36.753-46.071-43.931-23.962-6.112-28.803-8.883-28.803-16.467v-.39c0-6.199 6.301-10.216 16.052-10.216 13.071 0 24.648 3.619 35.399 11.048l1.651 1.151 18.268-26.381-1.46-1.169C135.531 27.039 118.549 22 95.587 22c-30.132 0-51.191 18.182-51.191 44.208v.398c0 30.061 21.78 38.043 48.079 44.736 24.995 6.381 26.803 10.251 26.803 15.861v.399c0 7.013-6.831 11.203-18.277 11.203-15.262 0-28.185-4.788-40.675-15.065l-1.538-1.264L38 147.29l1.443 1.29C55.2 162.589 76.284 170 100.402 170 132.968 170 154 152.165 154 124.597v-.398z" stroke="#000" stroke-width="12" stroke-linejoin="round"/></svg>
